X:107 
T:Lass in the Parlour, The  
F:file ID: cre.5/107lass_p
B:CRE5.061 (Gearrchaile sa PharlÃÂÃÂÃÂÃÂºs)
Q:160
M:9/8
R:slip jig
K:Am
A3 edB gdB|A3 edc dBG|
[1 A3 edB gdB|g3 edc BAG:|
[2 A3 edB gdB|g3 cde cdB||
|:c3 dec d2B|c3 dec dBG|
c3 dec de^f|1g3 edc BAG:|\
[2 g3 edc BAG|G6z3||

%%%

